X: 15435
T: Glen Kabul
R: reel
M: 4/4
K: Bminor
|:Bc^de fB~B2|fBgB fB~B2|a2gf e^deg|f6 fB|
b2ag fefg|aBgB fB~B2|B2fB ^defA|1 B8:|2 (B4B) fbf||
|:^deee eede|fBf4 fB|a2aBaB gB|(f4f)fg/f/^e/f/|
b2ag fefg|aBgB fB~B2|B2fB ^defA|1 (B4B) fbf:|2 B8||

